X:1
T:Title
%%score { 1 | 2 }
L:1/8
M:6/8
K:G
V:1 treble nm="Grand Piano"
V:2 treble 
V:1
 z3 z2[Q:1/4=95] d | d2 B B2 [CFA] | [B,EG][A,EF][B,EG] [CFA][CEG][G,CE] | %3
 [B,D]2 [B,DG] [^CGB]2 [CG] |[M:5/8] [DFA]-[DFA]- [DFA]3 |[M:1/8] [Fd] |[M:3/4] d2 B B2 [FA] | %7
 GF G[EA] [EG][EA] | [DB]2 [B,D] [DFB]2 [CFA] |[M:5/8] [B,G]-[B,G]- [B,G]3 |[M:1/8] [B,FG] | %11
[M:3/4] [CEc]2 [CEc][G,E] [CEG][EGc] | [DGB]3 [B,DB]2 [DGB] | [DGd]2 [DGB] [^CGA]2 [CG] | %14
[M:5/8] [DFA]-[DFA]- [DFA]3 |[M:1/8] [Fd] |[M:3/4] [Gd]2 [DGB] [DGB]2 [CFA] | %17
 [B,EG][A,EF] [B,EG][CFA] [CEG][G,_B,E] | [G,B,D]2 [B,DB] [CFA]2 [DFB] | %19
[M:5/8] [B,G]-[B,G]- [B,G]3 |] %20
V:2
 z3 z2 [G,B,G] | [G,B,G]2 [G,DG] [G,DG]2[K:bass] D, | E,E,E, C,C,C, | G,2 G, E,2 E, | %4
[M:5/8] D,-D,- D,3 |[M:1/8] [D,C] |[M:3/4][K:treble] [G,B,G]2 [G,DG] [G,DG]2[K:bass] [D,C] | %7
 [E,B,E][E,A,E] [E,B,E][C,C] [C,C][C,G,] | [D,G,]2 D, D,2 D, |[M:5/8] G,,-G,,- G,,3 |[M:1/8] G, | %11
[M:3/4] C,2 C,C, C,C, | G,3 G,2 G, | B,2 G, E,2 E, |[M:5/8] D,-D,- D,3 |[M:1/8] [D,C] | %16
[M:3/4] [G,B,]2 G, G,2 D, | E,E, E,C, C,C, | D,2 D, D,2 D, |[M:5/8] G,,-G,,- G,,3 |] %20

